X:217
T:Won't You Go My Way
M:2/4
L:1/8
K:C
c|\
dc BA|GE cB|A3 A|A3 A|
AG cE|DC CD|E3 D|C3 ||
